; generated by PrusaSlicer 2.9.4 on 2026-02-09 at 02:59:29 UTC

; 

; external perimeters extrusion width = 0.42mm
; perimeters extrusion width = 0.45mm
; infill extrusion width = 0.45mm
; solid infill extrusion width = 0.42mm
; top infill extrusion width = 0.42mm
; support material extrusion width = 0.42mm
; first layer extrusion width = 0.50mm

M190 S60 ; set bed temperature and wait for it to be reached
M104 S230 ; set temperature
;TYPE:Custom
G28 ; home all axes
G1 Z5 F5000 ; lift nozzle
M109 S230 ; set temperature and wait for it to be reached
G21 ; set units to millimeters
G90 ; use absolute coordinates
M82 ; use absolute distances for extrusion
G92 E0
; Filament gcode
M107
;LAYER_CHANGE
;Z:0.2
;HEIGHT:0.2
G1 E-2 F2400
G92 E0
G1 Z.2 F30000
G1 X71.612 Y-8.082
G1 E2 F2400
M204 S500
;TYPE:Skirt/Brim
;WIDTH:0.5
G1 F3000
G1 X98.372 Y18.678 E3.43832
G3 X99.834 Y22.224 I-4.058 J3.748 E3.5872
G1 X99.834 Y131.106 E7.7254
G3 X99.107 Y133.594 I-6.792 J-.636 E7.82452
G3 X94.664 Y136.21 I-4.65 J-2.816 E8.02868
G1 X35.861 Y136.21 E10.26357
G3 X32.3 Y134.747 I.199 J-5.547 E10.41299
G1 X-1.232 Y101.215 E12.2153
G1 X-88.646 Y101.21 E15.53758
G3 X-91.134 Y100.483 I.636 J-6.791 E15.6367
G3 X-93.75 Y96.04 I2.816 J-4.65 E15.84086
G1 X-93.75 Y-107.27 E23.56793
G3 X-93.023 Y-109.758 I6.791 J.636 E23.66705
G3 X-88.58 Y-112.374 I4.65 J2.816 E23.87121
G1 X89.736 Y-112.374 E30.64835
G3 X92.49 Y-111.476 I-.614 J6.553 E30.75935
G3 X94.831 Y-107.246 I-3.071 J4.462 E30.94982
G1 X94.834 Y-33.382 E33.75712
G3 X93.372 Y-29.842 I-5.518 J-.207 E33.90577
G1 X71.654 Y-8.124 E35.07309
M204 S10000
G1 X71.331 Y-8.448 F30000
M204 S500
G1 F3000
G1 X70.966 Y-8.082 E35.09274
G1 X98.038 Y18.99 E36.54783
G3 X99.377 Y22.237 I-3.703 J3.427 E36.68417
G1 X99.377 Y131.083 E40.82101
G3 X98.705 Y133.375 I-6.166 J-.564 E40.91236
G3 X94.648 Y135.753 I-4.24 J-2.584 E41.09855
G1 X35.872 Y135.753 E43.33241
G3 X32.612 Y134.412 I.177 J-5.063 E43.46925
G1 X-1.042 Y100.758 E45.27812
G1 X-88.623 Y100.753 E48.60675
G3 X-90.915 Y100.081 I.563 J-6.165 E48.6981
G3 X-93.293 Y96.024 I2.584 J-4.24 E48.88429
G1 X-93.293 Y-107.247 E56.60987
G3 X-92.621 Y-109.539 I6.166 J.564 E56.70122
G3 X-88.564 Y-111.917 I4.24 J2.584 E56.88741
G1 X89.713 Y-111.917 E63.66306
G3 X92.218 Y-111.108 I-.554 J5.998 E63.76392
G3 X94.375 Y-107.204 I-2.79 J4.09 E63.93977
G1 X94.377 Y-33.395 E66.74498
G3 X93.037 Y-30.154 I-5.041 J-.186 E66.88111
G1 X71.374 Y-8.49 E68.0455
M204 S10000
G1 X71.05 Y-8.813 F30000
M204 S500
G1 F3000
G1 X70.319 Y-8.082 E68.08479
G1 X97.703 Y19.302 E69.55665
G3 X98.92 Y22.249 I-3.348 J3.107 E69.68043
G1 X98.92 Y131.06 E73.81594
G3 X97.89 Y133.738 I-4.746 J-.289 E73.92672
G3 X94.634 Y135.296 I-3.438 J-3.003 E74.06776
G1 X35.884 Y135.296 E76.30063
G3 X32.925 Y134.079 I.157 J-4.585 E76.42484
G1 X-.853 Y100.301 E78.24038
G1 X-88.601 Y100.296 E81.57536
G3 X-91.278 Y99.266 I.289 J-4.746 E81.6861
G3 X-92.836 Y96.01 I3.003 J-3.438 E81.82714
G1 X-92.836 Y-107.224 E89.55132
G3 X-91.806 Y-109.902 I4.746 J.289 E89.6621
G3 X-88.55 Y-111.46 I3.438 J3.003 E89.80314
G1 X89.689 Y-111.46 E96.57735
G3 X91.982 Y-110.716 I-.486 J5.402 E96.66974
G3 X93.92 Y-107.164 I-2.547 J3.695 E96.82928
G1 X93.92 Y-33.408 E99.63247
G3 X92.703 Y-30.466 I-4.564 J-.165 E99.75607
G1 X71.093 Y-8.856 E100.91759
M204 S10000
G1 X70.77 Y-9.179 F30000
M204 S500
G1 F3000
G1 X69.673 Y-8.082 E100.97655
G1 X97.369 Y19.614 E102.46518
G3 X98.463 Y22.262 I-2.994 J2.787 E102.57643
G1 X98.463 Y131.038 E106.71061
G3 X95.435 Y134.735 I-3.974 J-.167 E106.90544
G1 X94.619 Y134.839 E106.9367
G1 X35.894 Y134.839 E109.16862
G3 X33.238 Y133.745 I.14 J-4.111 E109.28014
G1 X-.664 Y99.843 E111.10234
G1 X-88.578 Y99.839 E114.44363
G3 X-92.275 Y96.811 I.166 J-3.974 E114.63846
G1 X-92.379 Y95.996 E114.66969
G1 X-92.379 Y-107.202 E122.3925
G3 X-89.351 Y-110.899 I3.974 J.167 E122.58733
G1 X-88.536 Y-111.003 E122.61856
G1 X89.666 Y-111.003 E129.39136
G3 X92.821 Y-109.229 I-.211 J4.069 E129.53391
G3 X93.463 Y-107.151 I-3.603 J2.251 E129.6175
G1 X93.463 Y-33.421 E132.41971
G3 X92.369 Y-30.778 I-4.087 J-.144 E132.53077
G1 X70.812 Y-9.221 E133.68944
M204 S10000
G1 X70.489 Y-9.545 F30000
M204 S500
G1 F3000
G1 X69.026 Y-8.082 E133.76807
G1 X97.035 Y19.927 E135.27353
G3 X98.006 Y22.275 I-2.641 J2.466 E135.37221
G1 X98.006 Y131.016 E139.50506
G3 X94.604 Y134.382 I-3.5 J-.135 E139.70531
G1 X35.906 Y134.382 E141.93621
G3 X33.55 Y133.411 I.117 J-3.627 E142.03517
G1 X-.474 Y99.386 E143.86395
G1 X-88.556 Y99.382 E147.21162
G3 X-91.922 Y95.98 I.135 J-3.499 E147.41187
G1 X-91.922 Y-107.18 E155.13324
G3 X-88.521 Y-110.546 I3.499 J.135 E155.33345
G1 X89.644 Y-110.546 E162.10485
G3 X93.006 Y-107.138 I-.14 J3.5 E162.30516
G1 X93.006 Y-33.435 E165.10634
G3 X92.035 Y-31.091 I-3.61 J-.122 E165.20487
G1 X70.531 Y-9.587 E166.36069
M204 S10000
G1 X70.208 Y-9.91 F30000
M204 S500
G1 F3000
G1 X68.38 Y-8.082 E166.45894
G1 X96.701 Y20.239 E167.98117
G3 X97.549 Y22.287 I-2.291 J2.148 E168.06727
G1 X97.549 Y130.995 E172.19886
G3 X94.59 Y133.925 I-3.039 J-.109 E172.3732
G1 X35.917 Y133.925 E174.60315
G3 X33.863 Y133.078 I.098 J-3.15 E174.68945
G1 X-.285 Y98.929 E176.5249
G1 X-88.535 Y98.925 E179.87896
G3 X-91.465 Y95.967 I.109 J-3.039 E180.05326
G1 X-91.465 Y-107.159 E187.77333
G3 X-88.507 Y-110.089 I3.038 J.109 E187.94763
G1 X89.622 Y-110.089 E194.71766
G3 X92.549 Y-107.125 I-.113 J3.039 E194.89207
G1 X92.549 Y-33.448 E197.69226
G3 X91.701 Y-31.403 I-3.134 J-.101 E197.77825
G1 X70.251 Y-9.953 E198.93117
M204 S10000
G1 X69.927 Y-10.276 F30000
M204 S500
G1 F3000
G1 X67.734 Y-8.082 E199.04907
G1 X96.368 Y20.552 E200.58812
G3 X97.092 Y22.3 I-1.939 J1.827 E200.66163
G1 X97.092 Y130.973 E204.79189
G3 X94.575 Y133.468 I-2.577 J-.083 E204.9404
G1 X35.928 Y133.468 E207.16936
G3 X34.177 Y132.745 I.081 J-2.678 E207.24295
G1 X-.096 Y98.472 E209.08509
G1 X-88.514 Y98.468 E212.44553
G3 X-91.008 Y95.952 I.083 J-2.577 E212.59397
G1 X-91.008 Y-107.137 E220.31264
G3 X-88.492 Y-109.632 I2.577 J.083 E220.46111
G1 X89.6 Y-109.632 E227.22973
G3 X92.092 Y-107.112 I-.087 J2.578 E227.37823
G1 X92.092 Y-33.463 E230.17736
G3 X91.368 Y-31.716 I-2.658 J-.078 E230.25084
G1 X69.97 Y-10.318 E231.40096
M204 S10000
G1 X69.647 Y-10.641 F30000
M204 S500
G1 F3000
G1 X67.087 Y-8.082 E231.53853
G1 X96.035 Y20.866 E233.09446
G3 X96.635 Y22.313 I-1.587 J1.505 E233.15535
G1 X96.635 Y130.953 E237.28436
G3 X94.562 Y133.011 I-2.116 J-.059 E237.40688
G1 X35.939 Y133.011 E239.63492
G3 X34.49 Y132.411 I.059 J-2.195 E239.69587
G1 X.094 Y98.015 E241.54462
G1 X-88.493 Y98.011 E244.91149
G3 X-90.551 Y95.938 I.058 J-2.116 E245.03401
G1 X-90.551 Y-107.117 E252.75138
G3 X-88.478 Y-109.175 I2.116 J.059 E252.8739
G1 X89.579 Y-109.175 E259.64119
G3 X91.635 Y-107.099 I-.061 J2.116 E259.76375
G1 X91.635 Y-33.477 E262.56185
G3 X91.035 Y-32.03 I-2.182 J-.056 E262.62274
G1 X69.689 Y-10.684 E263.77007
M204 S10000
G1 X69.366 Y-11.007 F30000
M204 S500
G1 F3000
G1 X66.717 Y-8.359 E263.91242
G2 X66.729 Y-7.794 I.258 J.278 E263.93667
G1 X95.703 Y21.18 E265.494
G3 X96.177 Y22.325 I-1.242 J1.186 E265.54219
G1 X96.177 Y130.933 E269.66998
G3 X94.55 Y132.554 I-1.655 J-.035 E269.76644
G1 X35.951 Y132.554 E271.99357
G3 X34.804 Y132.079 I.04 J-1.72 E272.04184
G1 X.391 Y97.666 E273.89151
G1 X.188 Y97.558 E273.90025
G1 X-88.473 Y97.554 E277.26993
G3 X-90.094 Y95.926 I.035 J-1.656 E277.36643
G1 X-90.094 Y-107.097 E285.08259
G3 X-88.466 Y-108.718 I1.655 J.035 E285.17909
G1 X89.559 Y-108.718 E291.94517
G3 X91.177 Y-107.088 I-.037 J1.655 E292.04163
G1 X91.177 Y-33.49 E294.83882
G3 X90.703 Y-32.344 I-1.711 J-.038 E294.88705
G1 X69.408 Y-11.049 E296.03164
M204 S10000
G1 X69.085 Y-11.373 F30000
M204 S500
G1 F3000
G1 X66.382 Y-8.669 E296.17695
G2 X66.387 Y-7.489 I.589 J.587 E296.2268
G1 X95.371 Y21.495 E297.78466
G3 X95.72 Y22.338 I-.893 J.864 E297.82017
G1 X95.72 Y130.914 E301.94674
G3 X94.535 Y132.097 I-1.194 J-.011 E302.01727
G1 X35.961 Y132.097 E304.24345
G3 X35.118 Y131.747 I.024 J-1.249 E304.27896
G1 X.715 Y97.343 E306.12812
G2 X.119 Y97.097 I-.621 J.657 E306.15318
G1 X-88.454 Y97.097 E309.51951
G3 X-89.637 Y95.911 I.011 J-1.194 E309.59007
G1 X-89.637 Y-107.078 E317.30494
G3 X-88.452 Y-108.261 I1.194 J.011 E317.37547
G1 X89.541 Y-108.26 E324.14033
G3 X90.72 Y-107.077 I-.015 J1.194 E324.21062
G1 X90.72 Y-33.502 E327.00694
G3 X90.371 Y-32.659 I-1.242 J-.021 E327.04245
G1 X69.127 Y-11.415 E328.1843
M204 S10000
G1 E326.1843 F2400
G92 E0
G92 E0
G1 X65.575 Y-8.3 F30000
G1 E2 F2400
M204 S500
;TYPE:External perimeter
G1 F3000
G2 X65.959 Y-7.099 I1.389 J.218 E2.04969
G1 X94.952 Y21.894 E3.60804
G3 X95.142 Y22.352 I-.461 J.459 E3.62737
G1 X95.142 Y130.894 E7.75265
G3 X94.521 Y131.518 I-.613 J.011 E7.78998
G1 X35.976 Y131.518 E10.01506
G3 X35.518 Y131.328 I.001 J-.651 E10.03439
G1 X1.104 Y96.914 E11.88411
G2 X.147 Y96.518 I-.988 J1.033 E11.92439
G1 X-88.434 Y96.518 E15.29103
G3 X-89.058 Y95.897 I-.012 J-.612 E15.32836
G1 X-89.058 Y-107.058 E23.04193
G3 X-88.437 Y-107.682 I.612 J-.011 E23.07926
G1 X89.6 Y-107.677 E29.84579
G3 X90.142 Y-107.061 I-.068 J.606 E29.87999
G1 X90.142 Y-33.516 E32.67517
G3 X89.952 Y-33.058 I-.651 J-.001 E32.6945
G1 X65.951 Y-9.057 E33.98453
G2 X65.586 Y-8.36 I1.013 J.975 E34.01484
M204 S10000
G1 X65.572 Y-7.96 F30000
G1 X65.122 Y-8.372
M204 S500
;TYPE:Perimeter
G1 F3000
G2 X65.627 Y-6.785 I1.838 J.29 E34.08047
G1 X94.613 Y22.201 E35.63844
G3 X94.685 Y22.374 I-.143 J.161 E35.64581
G1 X94.685 Y130.858 E39.76889
G3 X94.497 Y131.061 I-.165 J.035 E39.78121
G1 X35.998 Y131.061 E42.00454
G3 X35.825 Y130.989 I-.012 J-.214 E42.01191
G1 X1.411 Y96.575 E43.86163
G2 X.17 Y96.061 I-1.291 J1.36 E43.91384
G1 X-88.398 Y96.061 E47.27998
G3 X-88.601 Y95.873 I-.036 J-.165 E47.2923
G1 X-88.601 Y-107.022 E55.00359
G3 X-88.413 Y-107.225 I.165 J-.035 E55.01591
G1 X89.552 Y-107.22 E61.77971
G3 X89.685 Y-107.037 I-.023 J.156 E61.7893
G1 X89.685 Y-33.538 E64.58273
G3 X89.613 Y-33.365 I-.215 J.012 E64.5901
G1 X65.611 Y-9.363 E65.88018
G2 X65.133 Y-8.431 I1.349 J1.281 E65.92053
M204 S10000
G1 E63.92053 F2400
G92 E0
G1 X89.502 Y-106.113 F30000
G1 E2 F2400
M204 S500
;TYPE:Solid infill
;WIDTH:0.50023
G1 F6300
G1 X88.783 Y-106.832 E2.03867
G1 X88.136 Y-106.832 E2.06327
G1 X89.296 Y-105.672 E2.12565
G1 X89.296 Y-105.025 E2.15025
G1 X87.49 Y-106.832 E2.2474
G1 X86.843 Y-106.832 E2.272
G1 X89.296 Y-104.379 E2.40391
G1 X89.296 Y-103.732 E2.42851
G1 X86.196 Y-106.832 E2.59522
G1 X85.549 Y-106.832 E2.61982
G1 X89.296 Y-103.085 E2.82132
G1 X89.296 Y-102.439 E2.84588
G1 X84.903 Y-106.832 E3.08212
G1 X84.256 Y-106.832 E3.10672
G1 X89.296 Y-101.792 E3.37775
G1 X89.296 Y-101.145 E3.40235
G1 X83.609 Y-106.832 E3.70817
G1 X82.962 Y-106.832 E3.73277
G1 X89.296 Y-100.499 E4.07336
G1 X89.296 Y-99.852 E4.09796
G1 X82.316 Y-106.832 E4.47332
G1 X81.669 Y-106.832 E4.49792
G1 X89.296 Y-99.205 E4.90807
G1 X89.295 Y-98.559 E4.93263
G1 X81.022 Y-106.832 E5.37752
G1 X80.375 Y-106.832 E5.40212
G1 X89.295 Y-97.912 E5.8818
G1 X89.295 Y-97.265 E5.9064
G1 X79.729 Y-106.832 E6.42085
G1 X79.082 Y-106.832 E6.44545
G1 X89.295 Y-96.619 E6.99467
G1 X89.295 Y-95.972 E7.01927
G1 X78.435 Y-106.832 E7.60328
G1 X77.788 Y-106.832 E7.62788
G1 X89.295 Y-95.325 E8.24668
G1 X89.295 Y-94.679 E8.27124
G1 X77.142 Y-106.832 E8.92478
G1 X76.495 Y-106.832 E8.94938
G1 X89.295 Y-94.032 E9.63771
G1 X89.295 Y-93.385 E9.66231
G1 X75.848 Y-106.832 E10.38544
G1 X75.201 Y-106.832 E10.41004
G1 X89.295 Y-92.739 E11.16793
G1 X89.295 Y-92.092 E11.19253
G1 X74.555 Y-106.832 E11.98519
G1 X73.908 Y-106.832 E12.00979
G1 X89.295 Y-91.445 E12.83724
G1 X89.295 Y-90.799 E12.8618
G1 X73.261 Y-106.832 E13.72402
G1 X72.614 Y-106.832 E13.74862
G1 X89.295 Y-90.152 E14.64563
G1 X89.295 Y-89.505 E14.67023
G1 X71.968 Y-106.832 E15.60201
G1 X71.321 Y-106.832 E15.62661
G1 X89.295 Y-88.859 E16.59316
G1 X89.295 Y-88.212 E16.61776
G1 X70.674 Y-106.832 E17.6191
G1 X70.027 Y-106.832 E17.6437
G1 X89.294 Y-87.565 E18.67981
G1 X89.294 Y-86.919 E18.70437
G1 X69.381 Y-106.832 E19.77521
G1 X68.734 Y-106.832 E19.79981
G1 X89.294 Y-86.272 E20.90545
G1 X89.294 Y-85.625 E20.93005
G1 X68.087 Y-106.832 E22.07048
G1 X67.44 Y-106.832 E22.09508
G1 X89.294 Y-84.978 E23.2703
G1 X89.294 Y-84.332 E23.29486
G1 X66.794 Y-106.832 E24.50482
G1 X66.147 Y-106.832 E24.52942
G1 X89.294 Y-83.685 E25.77418
G1 X89.294 Y-83.038 E25.79878
G1 X65.5 Y-106.832 E27.07833
G1 X64.853 Y-106.832 E27.10293
G1 X89.294 Y-82.392 E28.41725
G1 X89.294 Y-81.745 E28.44185
G1 X64.207 Y-106.832 E29.79093
G1 X63.56 Y-106.832 E29.81553
G1 X89.294 Y-81.098 E31.19941
G1 X89.294 Y-80.452 E31.22397
G1 X62.913 Y-106.832 E32.64261
G1 X62.266 Y-106.832 E32.66721
G1 X89.294 Y-79.805 E34.12064
G1 X89.294 Y-79.158 E34.14524
G1 X61.62 Y-106.832 E35.63344
G1 X60.973 Y-106.832 E35.65804
G1 X89.294 Y-78.512 E37.18101
G1 X89.294 Y-77.865 E37.20561
G1 X60.326 Y-106.833 E38.7634
G1 X59.679 Y-106.833 E38.788
G1 X89.294 Y-77.218 E40.38058
G1 X89.293 Y-76.572 E40.40514
G1 X59.033 Y-106.833 E42.03243
G1 X58.386 Y-106.833 E42.05703
G1 X89.293 Y-75.925 E43.71912
G1 X89.293 Y-75.278 E43.74372
G1 X57.739 Y-106.833 E45.4406
G1 X57.092 Y-106.833 E45.4652
G1 X89.293 Y-74.632 E47.19685
G1 X89.293 Y-73.985 E47.22145
G1 X56.446 Y-106.833 E48.98786
G1 X55.799 Y-106.833 E49.01246
G1 X89.293 Y-73.338 E50.81367
G1 X89.293 Y-72.692 E50.83823
G1 X55.152 Y-106.833 E52.6742
G1 X54.505 Y-106.833 E52.6988
G1 X89.293 Y-72.045 E54.56956
G1 X89.293 Y-71.398 E54.59416
G1 X53.859 Y-106.833 E56.49969
G1 X53.212 Y-106.833 E56.52429
G1 X89.293 Y-70.752 E58.46459
G1 X89.293 Y-70.105 E58.48919
G1 X52.565 Y-106.833 E60.46428
G1 X51.918 Y-106.833 E60.48888
G1 X89.293 Y-69.458 E62.49876
G1 X89.293 Y-68.812 E62.52332
G1 X51.272 Y-106.833 E64.56794
G1 X50.625 Y-106.833 E64.59254
G1 X89.293 Y-68.165 E66.67196
G1 X89.293 Y-67.518 E66.69656
G1 X49.978 Y-106.833 E68.81077
G1 X49.331 Y-106.833 E68.83537
G1 X89.293 Y-66.872 E70.98435
G1 X89.292 Y-66.225 E71.00895
G1 X48.685 Y-106.833 E73.19266
G1 X48.038 Y-106.833 E73.21726
G1 X89.292 Y-65.578 E75.43577
G1 X89.292 Y-64.932 E75.46033
G1 X47.391 Y-106.833 E77.7136
G1 X46.744 Y-106.833 E77.7382
G1 X89.292 Y-64.285 E80.02627
G1 X89.292 Y-63.638 E80.05087
G1 X46.098 Y-106.833 E82.3737
G1 X45.451 Y-106.833 E82.3983
G1 X89.292 Y-62.992 E84.7559
G1 X89.292 Y-62.345 E84.7805
G1 X44.804 Y-106.833 E87.17289
G1 X44.157 Y-106.833 E87.19749
G1 X89.292 Y-61.698 E89.62468
G1 X89.292 Y-61.052 E89.64924
G1 X43.511 Y-106.833 E92.11117
G1 X42.864 Y-106.833 E92.13577
G1 X89.292 Y-60.405 E94.63249
G1 X89.292 Y-59.758 E94.65709
G1 X42.217 Y-106.833 E97.1886
G1 X41.57 Y-106.833 E97.2132
G1 X89.292 Y-59.112 E99.77948
G1 X89.292 Y-58.465 E99.80408
G1 X40.924 Y-106.833 E102.40512
G1 X40.277 Y-106.833 E102.42972
G1 X89.292 Y-57.818 E105.06556
G1 X89.292 Y-57.171 E105.09016
G1 X39.63 Y-106.833 E107.76079
G1 X38.983 Y-106.833 E107.78539
G1 X89.292 Y-56.525 E110.49079
G1 X89.292 Y-55.878 E110.51539
G1 X38.337 Y-106.833 E113.25555
G1 X37.69 Y-106.833 E113.28015
G1 X89.291 Y-55.231 E116.05508
G1 X89.291 Y-54.585 E116.07964
G1 X37.043 Y-106.833 E118.88934
G1 X36.396 Y-106.833 E118.91394
G1 X89.291 Y-53.938 E121.75843
G1 X89.291 Y-53.291 E121.78303
G1 X35.75 Y-106.833 E124.66229
G1 X35.103 Y-106.833 E124.68689
G1 X89.291 Y-52.645 E127.60091
G1 X89.291 Y-51.998 E127.62551
G1 X34.456 Y-106.833 E130.57433
G1 X33.809 Y-106.833 E130.59893
G1 X89.291 Y-51.351 E133.58254
G1 X89.291 Y-50.705 E133.6071
G1 X33.163 Y-106.833 E136.62545
G1 X32.516 Y-106.833 E136.65005
G1 X89.291 Y-50.058 E139.70319
G1 X89.291 Y-49.411 E139.72779
G1 X31.869 Y-106.833 E142.81572
G1 X31.222 Y-106.833 E142.84032
G1 X89.291 Y-48.765 E145.96302
G1 X89.291 Y-48.118 E145.98762
G1 X30.576 Y-106.833 E149.14509
G1 X29.929 Y-106.833 E149.16969
G1 X89.291 Y-47.471 E152.36195
G1 X89.291 Y-46.825 E152.38651
G1 X29.282 Y-106.833 E155.61354
G1 X28.635 Y-106.833 E155.63814
G1 X89.291 Y-46.178 E158.89996
G1 X89.291 Y-45.531 E158.92456
G1 X27.989 Y-106.833 E162.22115
G1 X27.342 Y-106.833 E162.24575
G1 X89.291 Y-44.885 E165.5771
G1 X89.29 Y-44.238 E165.6017
G1 X26.695 Y-106.833 E168.96782
G1 X26.048 Y-106.833 E168.99242
G1 X89.29 Y-43.591 E172.39333
G1 X89.29 Y-42.945 E172.41789
